svg/comment_arrow_right_outline.svg

<svg xmlns="http://www.w3.org/2000/svg" viewBox="0 0 24 24"><path d="M20 2H4c-1.1 0-2 .9-2 2v12c0 1.1.9 2 2 2h4v3c0 .6.4 1 1 1h.5c.2 0 .5-.1.7-.3l3.7-3.7H20c1.1 0 2-.9 2-2V4c0-1.1-.9-2-2-2m0 14h-6.9L10 19.1V16H4V4h16zM8 9v2h4.5l-1.8 1.8L12 14l4-4-4-4-1.2 1.2L12.5 9z"/></svg>

<?xml version="1.0" encoding="UTF-8"?><!DOCTYPE svg PUBLIC "-//W3C//DTD SVG 1.1//EN" "http://www.w3.org/Graphics/SVG/1.1/DTD/svg11.dtd"><svg xmlns="http://www.w3.org/2000/svg" xmlns:xlink="http://www.w3.org/1999/xlink" version="1.1" id="mdi-comment-arrow-right-outline" width="24" height="24" viewBox="0 0 24 24"><path d="M20 2H4C2.9 2 2 2.9 2 4V16C2 17.1 2.9 18 4 18H8V21C8 21.6 8.4 22 9 22H9.5C9.7 22 10 21.9 10.2 21.7L13.9 18H20C21.1 18 22 17.1 22 16V4C22 2.9 21.1 2 20 2M20 16H13.1L10 19.1V16H4V4H20V16M8 9V11H12.5L10.7 12.8L12 14L16 10L12 6L10.8 7.2L12.5 9H8Z" /></svg>
